groups/aromatics/naphthalene.svg

<?xml version='1.0' encoding='iso-8859-1'?>
<svg version='1.1' baseProfile='full'
              xmlns='http://www.w3.org/2000/svg'
                      xmlns:rdkit='http://www.rdkit.org/xml'
                      xmlns:xlink='http://www.w3.org/1999/xlink'
                  xml:space='preserve'
width='256px' height='256px' viewBox='0 0 256 256'>
<!-- END OF HEADER -->
<rect style='opacity:1.0;fill:#FFFFFF;stroke:none' width='256.0' height='256.0' x='0.0' y='0.0'> </rect>
<path class='bond-0 atom-0 atom-1' d='M 185.4,28.2 L 185.3,94.6' style='fill:none;fill-rule:evenodd;stroke:#000000;stroke-width:2.0px;stroke-linecap:butt;stroke-linejoin:miter;stroke-opacity:1' />
<path class='bond-1 atom-1 atom-2' d='M 185.3,94.6 L 127.8,127.8' style='fill:none;fill-rule:evenodd;stroke:#000000;stroke-width:2.0px;stroke-linecap:butt;stroke-linejoin:miter;stroke-opacity:1' />
<path class='bond-1 atom-1 atom-2' d='M 185.3,106.1 L 137.8,133.5' style='fill:none;fill-rule:evenodd;stroke:#000000;stroke-width:2.0px;stroke-linecap:butt;stroke-linejoin:miter;stroke-opacity:1' />
<path class='bond-2 atom-2 atom-3' d='M 127.8,127.8 L 70.4,94.5' style='fill:none;fill-rule:evenodd;stroke:#000000;stroke-width:2.0px;stroke-linecap:butt;stroke-linejoin:miter;stroke-opacity:1' />
<path class='bond-3 atom-3 atom-4' d='M 70.4,94.5 L 12.9,127.7' style='fill:none;fill-rule:evenodd;stroke:#000000;stroke-width:2.0px;stroke-linecap:butt;stroke-linejoin:miter;stroke-opacity:1' />
<path class='bond-3 atom-3 atom-4' d='M 70.4,106.0 L 22.8,133.4' style='fill:none;fill-rule:evenodd;stroke:#000000;stroke-width:2.0px;stroke-linecap:butt;stroke-linejoin:miter;stroke-opacity:1' />
<path class='bond-4 atom-4 atom-5' d='M 12.9,127.7 L 12.8,194.1' style='fill:none;fill-rule:evenodd;stroke:#000000;stroke-width:2.0px;stroke-linecap:butt;stroke-linejoin:miter;stroke-opacity:1' />
<path class='bond-5 atom-5 atom-6' d='M 12.8,194.1 L 70.3,227.3' style='fill:none;fill-rule:evenodd;stroke:#000000;stroke-width:2.0px;stroke-linecap:butt;stroke-linejoin:miter;stroke-opacity:1' />
<path class='bond-5 atom-5 atom-6' d='M 22.8,188.3 L 70.3,215.8' style='fill:none;fill-rule:evenodd;stroke:#000000;stroke-width:2.0px;stroke-linecap:butt;stroke-linejoin:miter;stroke-opacity:1' />
<path class='bond-6 atom-6 atom-7' d='M 70.3,227.3 L 127.8,194.1' style='fill:none;fill-rule:evenodd;stroke:#000000;stroke-width:2.0px;stroke-linecap:butt;stroke-linejoin:miter;stroke-opacity:1' />
<path class='bond-7 atom-7 atom-8' d='M 127.8,194.1 L 185.2,227.4' style='fill:none;fill-rule:evenodd;stroke:#000000;stroke-width:2.0px;stroke-linecap:butt;stroke-linejoin:miter;stroke-opacity:1' />
<path class='bond-7 atom-7 atom-8' d='M 137.7,188.4 L 185.2,215.9' style='fill:none;fill-rule:evenodd;stroke:#000000;stroke-width:2.0px;stroke-linecap:butt;stroke-linejoin:miter;stroke-opacity:1' />
<path class='bond-8 atom-8 atom-9' d='M 185.2,227.4 L 242.7,194.2' style='fill:none;fill-rule:evenodd;stroke:#000000;stroke-width:2.0px;stroke-linecap:butt;stroke-linejoin:miter;stroke-opacity:1' />
<path class='bond-9 atom-9 atom-10' d='M 242.7,194.2 L 242.8,127.9' style='fill:none;fill-rule:evenodd;stroke:#000000;stroke-width:2.0px;stroke-linecap:butt;stroke-linejoin:miter;stroke-opacity:1' />
<path class='bond-9 atom-9 atom-10' d='M 232.8,188.5 L 232.8,133.6' style='fill:none;fill-rule:evenodd;stroke:#000000;stroke-width:2.0px;stroke-linecap:butt;stroke-linejoin:miter;stroke-opacity:1' />
<path class='bond-10 atom-10 atom-1' d='M 242.8,127.9 L 185.3,94.6' style='fill:none;fill-rule:evenodd;stroke:#000000;stroke-width:2.0px;stroke-linecap:butt;stroke-linejoin:miter;stroke-opacity:1' />
<path class='bond-11 atom-7 atom-2' d='M 127.8,194.1 L 127.8,127.8' style='fill:none;fill-rule:evenodd;stroke:#000000;stroke-width:2.0px;stroke-linecap:butt;stroke-linejoin:miter;stroke-opacity:1' />
<path d='M 73.2,96.2 L 70.4,94.5 L 67.5,96.2' style='fill:none;stroke:#000000;stroke-width:2.0px;stroke-linecap:butt;stroke-linejoin:miter;stroke-miterlimit:10;stroke-opacity:1;' />
<path d='M 15.7,126.0 L 12.9,127.7 L 12.9,131.0' style='fill:none;stroke:#000000;stroke-width:2.0px;stroke-linecap:butt;stroke-linejoin:miter;stroke-miterlimit:10;stroke-opacity:1;' />
<path d='M 12.8,190.7 L 12.8,194.1 L 15.7,195.7' style='fill:none;stroke:#000000;stroke-width:2.0px;stroke-linecap:butt;stroke-linejoin:miter;stroke-miterlimit:10;stroke-opacity:1;' />
<path d='M 67.4,225.6 L 70.3,227.3 L 73.1,225.6' style='fill:none;stroke:#000000;stroke-width:2.0px;stroke-linecap:butt;stroke-linejoin:miter;stroke-miterlimit:10;stroke-opacity:1;' />
<path d='M 182.4,225.7 L 185.2,227.4 L 188.1,225.7' style='fill:none;stroke:#000000;stroke-width:2.0px;stroke-linecap:butt;stroke-linejoin:miter;stroke-miterlimit:10;stroke-opacity:1;' />
<path d='M 239.9,195.9 L 242.7,194.2 L 242.7,190.9' style='fill:none;stroke:#000000;stroke-width:2.0px;stroke-linecap:butt;stroke-linejoin:miter;stroke-miterlimit:10;stroke-opacity:1;' />
<path d='M 242.8,131.2 L 242.8,127.9 L 239.9,126.2' style='fill:none;stroke:#000000;stroke-width:2.0px;stroke-linecap:butt;stroke-linejoin:miter;stroke-miterlimit:10;stroke-opacity:1;' />
<path class='atom-1' d='M152.202,28.2139 C152.2,30.7032 155.519,30.7058 155.521,28.2165 C155.523,25.7272 158.842,25.7299 158.84,28.2192 C158.838,30.7085 162.157,30.7111 162.159,28.2218 C162.161,25.7326 165.48,25.7352 165.478,28.2245 C165.476,30.7138 168.795,30.7164 168.797,28.2271 C168.799,25.7379 172.119,25.7405 172.117,28.2298 C172.115,30.7191 175.434,30.7217 175.436,28.2325 C175.438,25.7432 178.757,25.7458 178.755,28.2351 C178.753,30.7244 182.072,30.7271 182.074,28.2378 C182.076,25.7485 185.395,25.7511 185.393,28.2404 C185.391,30.7297 188.71,30.7324 188.712,28.2431 C188.714,25.7538 192.033,25.7565 192.031,28.2457 C192.029,30.735 195.348,30.7377 195.35,28.2484 C195.352,25.7591 198.671,25.7618 198.669,28.251 C198.667,30.7403 201.986,30.743 201.988,28.2537 C201.99,25.7644 205.309,25.7671 205.308,28.2564 C205.306,30.7456 208.625,30.7483 208.627,28.259 C208.629,25.7697 211.948,25.7724 211.946,28.2617 C211.944,30.751 215.263,30.7536 215.265,28.2643 C215.267,25.775 218.586,25.7777 218.584,28.267' style='fill:none;stroke:#7F7F7F;stroke-width:2.0px;stroke-linecap:butt;stroke-linejoin:miter;stroke-opacity:1' />
</svg>

<svg height="256" viewBox="0 0 256 256" width="256" xmlns="http://www.w3.org/2000/svg"><path d="m0 0h256v256h-256z" fill="#fff"/><g fill="none" stroke-width="2"><path d="m185.4 28.2-.1 66.4" stroke="#000"/><path d="m185.3 94.6-57.5 33.2" stroke="#000"/><path d="m185.3 106.1-47.5 27.4" stroke="#000"/><path d="m127.8 127.8-57.4-33.3" stroke="#000"/><path d="m70.4 94.5-57.5 33.2" stroke="#000"/><path d="m70.4 106-47.6 27.4" stroke="#000"/><path d="m12.9 127.7-.1 66.4" stroke="#000"/><path d="m12.8 194.1 57.5 33.2" stroke="#000"/><path d="m22.8 188.3 47.5 27.5" stroke="#000"/><path d="m70.3 227.3 57.5-33.2" stroke="#000"/><path d="m127.8 194.1 57.4 33.3" stroke="#000"/><path d="m137.7 188.4 47.5 27.5" stroke="#000"/><path d="m185.2 227.4 57.5-33.2" stroke="#000"/><path d="m242.7 194.2.1-66.3" stroke="#000"/><path d="m232.8 188.5v-54.9" stroke="#000"/><path d="m242.8 127.9-57.5-33.3" stroke="#000"/><path d="m127.8 194.1v-66.3" stroke="#000"/><path d="m73.2 96.2-2.8-1.7-2.9 1.7" stroke="#000" stroke-miterlimit="10"/><path d="m15.7 126-2.8 1.7v3.3" stroke="#000" stroke-miterlimit="10"/><path d="m12.8 190.7v3.4l2.9 1.6" stroke="#000" stroke-miterlimit="10"/><path d="m67.4 225.6 2.9 1.7 2.8-1.7" stroke="#000" stroke-miterlimit="10"/><path d="m182.4 225.7 2.8 1.7 2.9-1.7" stroke="#000" stroke-miterlimit="10"/><path d="m239.9 195.9 2.8-1.7v-3.3" stroke="#000" stroke-miterlimit="10"/><path d="m242.8 131.2v-3.3l-2.9-1.7" stroke="#000" stroke-miterlimit="10"/><path d="m152.202 28.214c-.002 2.489 3.317 2.492 3.319.003.002-2.49 3.321-2.487 3.319.002-.002 2.49 3.317 2.492 3.319.003s3.321-2.487 3.319.003c-.002 2.489 3.317 2.491 3.319.002s3.322-2.486 3.32.003 3.317 2.492 3.319.003c.002-2.49 3.321-2.487 3.319.002s3.317 2.492 3.319.003 3.321-2.487 3.319.002c-.002 2.49 3.317 2.492 3.319.003s3.321-2.486 3.319.003 3.317 2.492 3.319.002c.002-2.489 3.321-2.486 3.319.003s3.317 2.492 3.319.003c.002-2.49 3.321-2.487 3.32.002-.002 2.49 3.317 2.492 3.319.003s3.321-2.487 3.319.003c-.002 2.489 3.317 2.492 3.319.002.002-2.489 3.321-2.486 3.319.003" stroke="#7f7f7f"/></g></svg>
